X:258
T: HIER SITZ ICH AUF ROSEN MIT VEILCHEN BEKRAENZT
N: B0307A
O: Europa, Mitteleuropa, Deutschland, Rheinland; Westerwald
R: Geselligkeits -, Trink - Lied, Freude
M: 3/4
L: 1/8
K: G
D2 | G3ABc | d3ed2 | dcc2d2 | B4
D2 | G3ABc | d3ed2 | dcc2d2 | B4
GG | Aee2e2 | e3dcc | Bdd2de | d3c
B2 | Add2c2 | B4

